X:75
T:Stepping Stones
R:Jig
S:Lucy Farr, Galway (fiddle).
D:Lucy Farr - 'Hearth and Home'
Q:300
M:6/8
Z:Bernie Stocks
K:D
|: E2B BAF | ABc d3 | E2B BAF | ABA FED | E2B BAF | ABc d2e | fed BAF | FED E3 :|
|: E2e edB | ABc d3 | B2e edB | ABA FED | E2e edB | ABc d2e | fed BAF | FED E3 :|
<end>
<start>
